!!!OTL: 679b. Sichlein rauschen.
!!!ODT: 1840
!!!ARE: Europa, Mitteleuropa, Deutschland, Brandenburg; Sachsen, Dahme
!!!SCT: E0679B
!!!TXL: @@DE
!!!YEM: Copyright 1995, estate of Helmut Schaffrath.
**kern	**text
*ICvox	*
*M6/8	*
*k[b-e-]	*
*B-:	*
!LO:TX:a:t=Mäßig geschwind.	!
!LO:TX:a:t=Aus Dahme, an der Grenʒe von Brandenburg und Sachſen. 1840.	!
{8f	Es
=1	=1
8fL	dun-
8b-J	.
8b-	-kelt
8b-L	vor
8aJ	.
8b-	dem
=2	=2
(4g	Wal-
8b-/)	.
4g}	-de,
{8f	nach
=3	=3
8b-L	Hau-
8fJ	.
8d	-ſe
8f	wol-
8e-	-len
8e-	wir
=4	=4
4.d	gehn;
4r}	.
{8f	das
=5	=5
8fL	Korn
8dJ	.
8f	wolln
8fL	wir
8dJ	.
8f	ab-
=6	=6
(4b-	-ſchnei-
8cc)	.
4dd}	-den,
{8dd	ſo
=7	=7
4cc	gut
8cc	als
8ddL	wir
8ccJ	.
8a	ver-
=8	=8
4.b-	-ſtehn.
4r}	.
==	==
!!!AGN: Liebes - Lied, Leid, Klage
!!!ONB: ESAC (Essen Associative Code) Database: ERK2
!!!AMT: compound duple
!!!AIN: vox
!!!EED: Helmut Schaffrath
!!!EEV: 1.0
!!!GTL: Liebeslieder [Neuere (aus dem 18. bis 19. Jahrh.) - Liebesleid] 678-740
!!!URL-scan: https://rosdok.uni-rostock.de/mcrviewer/recordIdentifier/rosdok_ppn745177662/iview2/phys_0478.iview2?x=193.8995864193107&y=1821.0429129928816&scale=0.7029437510502773&rotation=0&layout=singlePageLayout
!!!ENC: Anna Maria Matuszewska
!!!EEV: 2024/12/12
*-	*-
